X:1
T:Venetian gondola song no. 1, op. 19, no. 6
T:Venetian Gondola Song No. 6 op. 19
T:Felix Mendelssohn Bartholdy
C:Mendelssohn
%%score { 1 | 2 }
L:1/8
Q:1/4=56
M:6/8
K:Bb
V:1 bass nm="Piano" snm="Pno."
V:2 bass 
V:1
!p! z [G,B,]D, z [G,B,]D, | z [G,B,]D, z [G,A,C]E, |!<(! D[G,B,]D,!sfz! F!>(![A,C]F,!<)!!>)! | %3
 z [B,D]F, E[G,C]E, |!p! z [G,B,]D, z [G,B,]D, | z [G,B,]D, z [^F,A,]D, | %6
[K:treble] z4 z"^cantabile" [Bd] | [Ac]2 [GB] [^FA]2 [Ac] | [DB] z [CA] [B,G]2 D | %9
 [CE]2 [CE] [CE]/[DF]/[EG][CE] | D4 z [Bd] | [Ac]2 [GB] [^FA]2 [Ac] | [DB]2 [CA] [B,G]GA | %13
 B^cd [cf]=ed | [da]2 f d2!>(!"_dim." A!>)! | B[=E^c]!p![Fd] [Af][G=e][Fd] | [Fd]3- [Fd] z d | %17
 fF[Ad] =cF[G=B] | c[C_E]G _A[DF]=B | c[CE]G _A[DF]=B | cEG cE[Gc] |!pp! eE[^F=A] eE[FA] | %22
 eE[^FA] eE[Ad] | cD[GB] A[^CB]G |!<(! [D^FAd]dd!>(! ddd!<)!!>)! |!p! d[DGB][^Fce] d[GB][Bdg] | %26
 d[DGB][^Fce] d[GB][Bdg] | d[DGc][DGB] A[EG][EGA] | d[D^F][DFA] c[DA][DGB] | %29
 d[DGB][^Fce] d[GB][Bdg] | d[DGB][^Fce] d[=GB][Bd=g] |"_dim." [ceg]ge dec | B[Gc][EA] GA!p![CD^F] | %33
 [B,DG] z z z2!mf! [Bd] | [Ac]2 [GB] [^FA]2 [Ec] | [DB]2 [dd'] [dd']2"_dim." [DB] | %36
 [CA]2 [B,G] [A,^F]2 [FA] |!pp! [DA]2 [dd'] [dd']2 [DB] | G2 [dd'] [dd']2 z | %39
[K:bass]!pp! z2 z =F[A,C]F, |!>(! z [B,D]F, E[G,C]E,!>)! | z [G,B,]D, z [G,B,]D, | %42
 z [A,C]D, z [^F,A,]D, | z [G,B,]D, D3- | D[G,B,]D, D3- | D z z4 |] %46
V:2
 G,,2 z G,,2 z | G,,2 z G,,2 z | [G,,,G,,]2 z!ped! [F,,,F,,]2 z!ped-up! | [B,,,B,,]2 z [C,,C,]2 z | %4
 D,,2 z D,,2 z | D,,2 z D,,2 z | G,,[G,B,]D, G,,[G,B,]D, |!ped! G,,[A,C]D, G,,[A,C]D,!ped-up! | %8
!ped! G,,[G,B,]D, G,,[G,B,]D,!ped-up! | G,,G,E, G,,[G,C]E, |!ped! G,,[G,B,]D, G,,[G,B,]D,!ped-up! | %11
!ped! G,,[A,C]D, G,,[A,C]D,!ped-up! |!ped! G,,[G,B,]D, G,,G,D,!ped-up! | G,,[B,D]G, G,,[^B,C]G, | %14
!ped! F,,[A,D]F, F,,[A,D]F,!ped-up! | G,,[B,D]G, G,,^CA, | D,[A,D]F, D,[A,D]F, | %17
!ped! G,,[G,=B,]D, G,,[G,B,]D,!ped-up! |!ped! C,,G,E, C,[F,_A,]D,!ped-up! | %19
!ped! C,,G,E, C,[F,_A,]D,!ped-up! | C,,[E,G,]C, C,,[E,G,]C, | %21
!ped! ^F,,[E,=A,]C, F,,[E,A,]C,!ped-up! |!ped! ^F,,[E,A,]C, F,,[E,A,]C,!ped-up! | %23
 G,,[D,G,]B,, E,,[G,B,]E, |!ped! D,,2 z z2 z!ped-up! | [G,,,G,,] z z z2 z | [G,,,G,,] z z z2 z | %27
 [B,,,B,,] z z [C,,C,] z z | [D,,D,] z z [G,,G,] z z | [G,,G,] z z z2 z | [G,,G,] z z z2 z | %31
 [C,,C,] z z z GE | DEC D z D, |!ped! G,,[G,B,]D, G,,[G,B,]D,!ped-up! | %34
!ped! G,,[A,C]D, G,,[A,C]D,!ped-up! |!ped! G,,[G,B,]D, G,,[G,B,]D,!ped-up! | G,,G,D, G,,[CD]D, | %37
!ped! G,,[G,B,]D, G,,[G,B,]D,!ped-up! |!ped! G,,[G,B,]D, G,,[G,B,]D,!ped-up! | %39
!ped! G,,[G,B,]D, F,, z z!ped-up! | [B,,,B,,]2 z [C,,C,]2 z | D,,2 z D,,2 z | D,,2 z D,,2 z | %43
 G,,, z z4 | G,,, z z4 | G,,,6 |] %46

